X:1070
T:Father Kelly's Reel
R:reel
S:P. Haverty
M:C|
L:1/8
K:G
GA|B2 GB AGEG|DGGF GABd|c2AB cBAG|EAAG ABcA|
B2GB AGEG|DGGF GABc|d2 Bd gdBd|1 cAFA G2 GA:|2 cAFA G2 Bc ||
d2Bd gdBd|d2 Bd gdBd|e2 ce agfe|defg agfe|
d2Bd gdBd|d2 Bd gdBd|c2Ac B2 GB|1 AGFA G2 Bc :|2 AGFA G2 GA |>|
